NotoEmoji/emoji_u1f5c4.svg

<svg enable-background="new 0 0 128 128" viewBox="0 0 128 128" xmlns="http://www.w3.org/2000/svg"><path d="m14.45 4c-1.91 0-3.46 1.55-3.46 3.46v51.88 9.31 51.88c0 1.91 1.55 3.46 3.46 3.46h99.1c1.91 0 3.46-1.55 3.46-3.46v-51.87-9.31-51.89c0-1.91-1.55-3.46-3.46-3.46z" fill="#607d8b"/><path d="m105.71 62.35h-83.42c-2.62 0-4.74-2.12-4.74-4.74v-42.68c0-2.62 2.12-4.74 4.74-4.74h83.43c2.62 0 4.74 2.12 4.74 4.74v42.67c0 2.63-2.13 4.75-4.75 4.75z" fill="#37474f"/><path d="m105.71 117.81h-83.42c-2.62 0-4.74-2.12-4.74-4.74v-42.68c0-2.62 2.12-4.74 4.74-4.74h83.43c2.62 0 4.74 2.12 4.74 4.74v42.67c0 2.63-2.13 4.75-4.75 4.75z" fill="#37474f"/><path d="m51.9 76.33h24.21v13.81h-24.21z" fill="#fafafa"/><path d="m74.76 78.87s-1.01 2-1.04 5.1c-.03 2.81 1.47 5.86 1.47 5.86h-22.4s1.39-2.85 1.41-5.48c.02-3.03-1.07-5.48-1.07-5.48zm1.36-3.15h-24.24c-1.38 0-2.5 1.12-2.5 2.5v12.27c0 1.38 1.12 2.5 2.5 2.5h24.25c1.38 0 2.5-1.12 2.5-2.5v-12.28c-.01-1.38-1.13-2.49-2.51-2.49z" fill="#263238"/><path d="m75.47 77.43s-1.47 2.29-1.47 5.1 1.47 5.86 1.47 5.86h-22.94s1.41-2.85 1.41-5.48-1.41-5.48-1.41-5.48zm.65-3.15h-24.24c-1.38 0-2.5 1.12-2.5 2.5v12.27c0 1.38 1.12 2.5 2.5 2.5h24.25c1.38 0 2.5-1.12 2.5-2.5v-12.28c-.01-1.37-1.13-2.49-2.51-2.49z" fill="#9e9e9e"/><path d="m52.32 75.72h8.19" fill="none" stroke="#c9e3e6" stroke-linecap="round" stroke-miterlimit="10" stroke-width="1.5756"/><path d="m71.37 109.18c-.54 0-13.39 0-13.39 0-4.37 0-7.92-3.54-7.92-7.92v-.72c0-1.06.84-3.5 1.9-3.5 3.6 0 26.02.1 26.27.48 3.36 5.03-1.23 11.65-6.86 11.66z" fill="#263238"/><path d="m70.51 106.65h-13.02c-4.48 0-8.11-3.63-8.11-8.11v-.48c0-1.09.88-1.97 1.97-1.97h25.31c1.09 0 1.97.88 1.97 1.97v.48c-.01 4.48-3.64 8.11-8.12 8.11z" fill="#607d8b"/><path d="m58.59 99.93c-1.97.18-3.95.26-5.93.23-.45-.01-2-.2-1.7-1.84.29-1.6 4.5-1.24 6.12-1.25 5.3-.03 5.92.53 5.92 1.18 0 .68-.53 1.34-4.41 1.68z" fill="#c9e3e6"/><path d="m51.9 20.87h24.21v13.81h-24.21z" fill="#fafafa"/><path d="m74.76 23.41s-1.01 2-1.04 5.1c-.03 2.81 1.47 5.86 1.47 5.86h-22.4s1.39-2.85 1.41-5.48c.02-3.03-1.07-5.48-1.07-5.48zm1.36-3.15h-24.24c-1.38 0-2.5 1.12-2.5 2.5v12.27c0 1.38 1.12 2.5 2.5 2.5h24.25c1.38 0 2.5-1.12 2.5-2.5v-12.28c-.01-1.38-1.13-2.49-2.51-2.49z" fill="#263238"/><path d="m75.47 21.97s-1.47 2.29-1.47 5.1 1.47 5.86 1.47 5.86h-22.94s1.41-2.85 1.41-5.48-1.41-5.48-1.41-5.48zm.65-3.15h-24.24c-1.38 0-2.5 1.12-2.5 2.5v12.27c0 1.38 1.12 2.5 2.5 2.5h24.25c1.38 0 2.5-1.12 2.5-2.5v-12.28c-.01-1.37-1.13-2.49-2.51-2.49z" fill="#9e9e9e"/><path d="m52.32 20.26h8.19" fill="none" stroke="#c9e3e6" stroke-linecap="round" stroke-miterlimit="10" stroke-width="1.5756"/><path d="m71.37 53.72c-.54 0-13.39 0-13.39 0-4.37 0-7.92-3.54-7.92-7.92v-.72c0-1.06.84-3.5 1.9-3.5 3.6 0 26.02.1 26.27.48 3.36 5.03-1.23 11.65-6.86 11.66z" fill="#263238"/><path d="m70.51 51.19h-13.02c-4.48 0-8.11-3.63-8.11-8.11v-.48c0-1.09.88-1.97 1.97-1.97h25.31c1.09 0 1.97.88 1.97 1.97v.48c-.01 4.48-3.64 8.11-8.12 8.11z" fill="#607d8b"/><path d="m58.59 44.47c-1.97.18-3.95.26-5.93.23-.45-.01-2-.2-1.7-1.84.29-1.6 4.5-1.24 6.12-1.25 5.3-.03 5.92.53 5.92 1.18 0 .68-.53 1.34-4.41 1.68z" fill="#c9e3e6"/></svg>

<?xml version="1.0" encoding="utf-8"?>
<!-- Generator: Adobe Illustrator 25.2.3, SVG Export Plug-In . SVG Version: 6.00 Build 0)  -->
<svg version="1.1" id="Layer_2" xmlns="http://www.w3.org/2000/svg" xmlns:xlink="http://www.w3.org/1999/xlink" x="0px" y="0px"
	 viewBox="0 0 128 128" style="enable-background:new 0 0 128 128;" xml:space="preserve">
<g>
	<path style="fill:#607D8B;" d="M14.45,4c-1.91,0-3.46,1.55-3.46,3.46v51.88v9.31v51.88c0,1.91,1.55,3.46,3.46,3.46h99.1
		c1.91,0,3.46-1.55,3.46-3.46V68.66v-9.31V7.46c0-1.91-1.55-3.46-3.46-3.46H14.45z"/>
	<path style="fill:#37474F;" d="M105.71,62.35H22.29c-2.62,0-4.74-2.12-4.74-4.74V14.93c0-2.62,2.12-4.74,4.74-4.74h83.43
		c2.62,0,4.74,2.12,4.74,4.74v42.67C110.46,60.23,108.33,62.35,105.71,62.35z"/>
	<path style="fill:#37474F;" d="M105.71,117.81H22.29c-2.62,0-4.74-2.12-4.74-4.74V70.39c0-2.62,2.12-4.74,4.74-4.74h83.43
		c2.62,0,4.74,2.12,4.74,4.74v42.67C110.46,115.69,108.33,117.81,105.71,117.81z"/>
	<rect x="51.9" y="76.33" style="fill:#FAFAFA;" width="24.21" height="13.81"/>
	<path style="fill:#263238;" d="M74.76,78.87c0,0-1.01,2-1.04,5.1c-0.03,2.81,1.47,5.86,1.47,5.86h-22.4c0,0,1.39-2.85,1.41-5.48
		c0.02-3.03-1.07-5.48-1.07-5.48H74.76z M76.12,75.72H51.88c-1.38,0-2.5,1.12-2.5,2.5v12.27c0,1.38,1.12,2.5,2.5,2.5h24.25
		c1.38,0,2.5-1.12,2.5-2.5V78.21C78.62,76.83,77.5,75.72,76.12,75.72L76.12,75.72z"/>
	<path style="fill:#9E9E9E;" d="M75.47,77.43c0,0-1.47,2.29-1.47,5.1c0,2.81,1.47,5.86,1.47,5.86H52.53c0,0,1.41-2.85,1.41-5.48
		s-1.41-5.48-1.41-5.48H75.47z M76.12,74.28H51.88c-1.38,0-2.5,1.12-2.5,2.5v12.27c0,1.38,1.12,2.5,2.5,2.5h24.25
		c1.38,0,2.5-1.12,2.5-2.5V76.77C78.62,75.4,77.5,74.28,76.12,74.28L76.12,74.28z"/>
	
		<line style="fill:none;stroke:#C9E3E6;stroke-width:1.5756;stroke-linecap:round;stroke-miterlimit:10;" x1="52.32" y1="75.72" x2="60.51" y2="75.72"/>
	<path style="fill:none;stroke:#C9E3E6;stroke-width:1.5756;stroke-linecap:round;stroke-miterlimit:10;" d="M60.72,75.36"/>
	<path style="fill:#263238;" d="M71.37,109.18c-0.54,0-13.39,0-13.39,0c-4.37,0-7.92-3.54-7.92-7.92v-0.72c0-1.06,0.84-3.5,1.9-3.5
		c3.6,0,26.02,0.1,26.27,0.48C81.59,102.55,77,109.17,71.37,109.18z"/>
	<path style="fill:#607D8B;" d="M70.51,106.65H57.49c-4.48,0-8.11-3.63-8.11-8.11v-0.48c0-1.09,0.88-1.97,1.97-1.97h25.31
		c1.09,0,1.97,0.88,1.97,1.97v0.48C78.62,103.02,74.99,106.65,70.51,106.65z"/>
	<path style="fill:#C9E3E6;" d="M58.59,99.93c-1.97,0.18-3.95,0.26-5.93,0.23c-0.45-0.01-2-0.2-1.7-1.84
		c0.29-1.6,4.5-1.24,6.12-1.25c5.3-0.03,5.92,0.53,5.92,1.18C63,98.93,62.47,99.59,58.59,99.93z"/>
	<rect x="51.9" y="20.87" style="fill:#FAFAFA;" width="24.21" height="13.81"/>
	<path style="fill:#263238;" d="M74.76,23.41c0,0-1.01,2-1.04,5.1c-0.03,2.81,1.47,5.86,1.47,5.86h-22.4c0,0,1.39-2.85,1.41-5.48
		c0.02-3.03-1.07-5.48-1.07-5.48H74.76z M76.12,20.26H51.88c-1.38,0-2.5,1.12-2.5,2.5v12.27c0,1.38,1.12,2.5,2.5,2.5h24.25
		c1.38,0,2.5-1.12,2.5-2.5V22.75C78.62,21.37,77.5,20.26,76.12,20.26L76.12,20.26z"/>
	<path style="fill:#9E9E9E;" d="M75.47,21.97c0,0-1.47,2.29-1.47,5.1s1.47,5.86,1.47,5.86H52.53c0,0,1.41-2.85,1.41-5.48
		s-1.41-5.48-1.41-5.48H75.47z M76.12,18.82H51.88c-1.38,0-2.5,1.12-2.5,2.5v12.27c0,1.38,1.12,2.5,2.5,2.5h24.25
		c1.38,0,2.5-1.12,2.5-2.5V21.31C78.62,19.94,77.5,18.82,76.12,18.82L76.12,18.82z"/>
	
		<line style="fill:none;stroke:#C9E3E6;stroke-width:1.5756;stroke-linecap:round;stroke-miterlimit:10;" x1="52.32" y1="20.26" x2="60.51" y2="20.26"/>
	<path style="fill:none;stroke:#C9E3E6;stroke-width:1.5756;stroke-linecap:round;stroke-miterlimit:10;" d="M60.72,19.9"/>
	<path style="fill:#263238;" d="M71.37,53.72c-0.54,0-13.39,0-13.39,0c-4.37,0-7.92-3.54-7.92-7.92v-0.72c0-1.06,0.84-3.5,1.9-3.5
		c3.6,0,26.02,0.1,26.27,0.48C81.59,47.09,77,53.71,71.37,53.72z"/>
	<path style="fill:#607D8B;" d="M70.51,51.19H57.49c-4.48,0-8.11-3.63-8.11-8.11v-0.48c0-1.09,0.88-1.97,1.97-1.97h25.31
		c1.09,0,1.97,0.88,1.97,1.97v0.48C78.62,47.56,74.99,51.19,70.51,51.19z"/>
	<path style="fill:#C9E3E6;" d="M58.59,44.47c-1.97,0.18-3.95,0.26-5.93,0.23c-0.45-0.01-2-0.2-1.7-1.84
		c0.29-1.6,4.5-1.24,6.12-1.25c5.3-0.03,5.92,0.53,5.92,1.18C63,43.47,62.47,44.13,58.59,44.47z"/>
</g>
</svg>
